relation-zero-or-one-to-only-one.svg

<svg fill="currentColor" viewBox="0 0 24 24"><path d="M21 15v-2h-2v2h-1v-2h-2v2h-3V7H9.79a2.5 2.5 0 0 0-4.58 0H5V5H3v2H2v2h1v2h2V9h.21a2.5 2.5 0 0 0 4.58 0H11v8h5v2h2v-2h1v2h2v-2h1v-2M7.5 9a1 1 0 1 1 1-1 1 1 0 0 1-1 1"/></svg>

<svg  viewBox="0 0 24 24" fill="currentColor"><path  d="M21 15V13H19V15H18V13H16V15H13V7H9.79A2.5 2.5 0 0 0 5.21 7H5V5H3V7H2V9H3V11H5V9H5.21A2.5 2.5 0 0 0 9.79 9H11V17H16V19H18V17H19V19H21V17H22V15M7.5 9A1 1 0 1 1 8.5 8A1 1 0 0 1 7.5 9Z"/></svg>
